src/img/service-7.svg

<svg width="39" height="39" viewBox="0 0 39 39" fill="none" xmlns="http://www.w3.org/2000/svg">
<rect y="19" width="20" height="20" rx="8" fill="#3ED9B0"/>
<path d="M21.3282 20.1094V18.6578L22.8839 19.4354L23.4293 18.3452L21.9308 17.5963L22.8851 16.9601L22.2093 15.9461L20.6755 16.9687L19.5476 16.4044L21.6426 15.1472L21.0156 14.1022L18.2557 15.7578L17.1107 15.185L19.2057 13.9279C19.3873 13.8188 19.5001 13.6201 19.5001 13.4062C19.5001 13.1924 19.3873 12.9937 19.2045 12.884L17.1095 11.6269L18.2545 11.0541L21.0143 12.7097L21.6414 11.6647L19.5464 10.4075L20.6743 9.84323L22.2081 10.8658L22.8839 9.85177L21.9296 9.21558L23.4281 8.46666L22.8827 7.37648L21.3282 8.15466V6.70312H20.1094V8.76403L18.8907 9.37341V6.70312H17.6719V9.98278L16.4532 10.5922V7.3125C16.4532 7.08764 16.3295 6.88106 16.1314 6.77503C15.9346 6.669 15.6921 6.68119 15.5062 6.8055L12.7969 8.61169V6.98892L16.2344 4.12425L15.4538 3.18825L12.7969 5.40211V3.90853L14.4465 2.25895L13.5848 1.3973L12.7969 2.18522V1.21875H11.5782V2.18522L10.7903 1.3973L9.9286 2.25895L11.5782 3.90853V5.40211L8.92191 3.18825L8.1413 4.12425L11.5782 6.98892V8.61169L8.8695 6.8055C8.68243 6.68058 8.44172 6.669 8.24429 6.77503C8.04563 6.88106 7.92193 7.08764 7.92193 7.3125V10.5922L6.70318 9.98278V6.70312H5.48443V9.37341L4.26568 8.76403V6.70312H3.04693V8.15466L1.49119 7.37709L0.945801 8.46727L2.44425 9.21619L1.48997 9.85238L2.16577 10.8664L3.69957 9.84384L4.82752 10.4081L2.73249 11.6653L3.35954 12.7103L6.11939 11.0547L7.26441 11.6275L5.16938 12.8846C4.98778 12.9937 4.87505 13.1924 4.87505 13.4062C4.87505 13.6201 4.98778 13.8188 5.1706 13.9285L7.26563 15.1856L6.12061 15.7584L3.36075 14.1028L2.73371 15.1478L4.82874 16.405L3.70079 16.9693L2.16699 15.9467L1.49119 16.9607L2.44547 17.5969L0.94702 18.3458L1.49241 19.436L3.04693 18.6578V20.1094H4.26568V18.0485L5.48443 17.4391V20.1094H6.70318V16.8297L7.92193 16.2203V19.5C7.92193 19.7249 8.04563 19.9314 8.24368 20.0375C8.44111 20.1429 8.68243 20.1313 8.86889 20.007L11.5782 18.2008V19.8236L8.14069 22.6882L8.9213 23.6243L11.5782 21.4104V22.904L9.9286 24.5535L10.7903 25.4152L11.5782 24.6273V25.5938H12.7969V24.6273L13.5848 25.4152L14.4465 24.5535L12.7969 22.904V21.4104L15.4532 23.6243L16.2338 22.6882L12.7969 19.8236V18.2008L15.5056 20.007C15.6074 20.0753 15.7256 20.1094 15.8438 20.1094C15.9425 20.1094 16.0412 20.0856 16.1314 20.0375C16.3295 19.9314 16.4532 19.7249 16.4532 19.5V16.2203L17.6719 16.8297V20.1094H18.8907V17.4391L20.1094 18.0485V20.1094H21.3282ZM17.7067 13.4062L15.8176 14.5397L13.5501 13.4062L15.817 12.2728L17.7067 13.4062ZM15.2344 8.45142V11.2015L12.7969 12.4203V10.076L15.2344 8.45142ZM9.14068 8.45142L11.5782 10.0766V12.4209L9.14068 11.2021V8.45142ZM6.66844 13.4062L8.5575 12.2728L10.8244 13.4062L8.5575 14.5397L6.66844 13.4062ZM9.14068 18.3611V15.611L11.5782 14.3922V16.7365L9.14068 18.3611ZM15.2344 18.3611L12.7969 16.7359V14.3916L15.2344 15.6104V18.3611Z" fill="#333333"/>
<path d="M37.51 30.3664L36.8342 29.3524L35.1219 30.4943L33.6515 29.8642L35.008 29.186C35.2133 29.0824 35.3437 28.8716 35.3437 28.6406C35.3437 28.4097 35.2133 28.1988 35.0067 28.0952L33.6503 27.417L35.1207 26.7869L36.833 27.9289L37.5088 26.9149L36.4577 26.2141L38.0201 25.5444L37.5405 24.4244L35.9531 25.105V23.7656H34.7343V25.6273L32.9062 26.4109V24.375C32.9062 24.1727 32.8057 23.9838 32.6387 23.8704C32.4711 23.7565 32.2572 23.7339 32.0708 23.8089L29.8593 24.6937V22.9235L31.9599 21.8729L31.4145 20.7827L29.8593 21.5609V19.5H28.6406V21.5609L27.0849 20.7833L26.5395 21.8735L28.6406 22.9235V24.6937L26.4292 23.8089C26.2433 23.7345 26.03 23.7571 25.8612 23.8704C25.6943 23.9838 25.5937 24.1727 25.5937 24.375V26.4109L23.7656 25.6273V23.7656H22.5469V25.105L20.9588 24.4244L20.4792 25.5444L22.0417 26.2141L20.9905 26.9149L21.6663 27.9289L23.3787 26.7869L24.8491 27.417L23.4926 28.0952C23.2866 28.1988 23.1562 28.4097 23.1562 28.6406C23.1562 28.8716 23.2866 29.0824 23.4932 29.186L24.8497 29.8642L23.3793 30.4943L21.6669 29.3524L20.9911 30.3664L22.0423 31.0672L20.4799 31.7369L20.9594 32.8569L22.5469 32.1762V33.5156H23.7656V31.654L25.5937 30.8703V32.9062C25.5937 33.1086 25.6943 33.2975 25.8612 33.4108C25.9636 33.4803 26.0831 33.5156 26.2031 33.5156C26.2799 33.5156 26.3567 33.5016 26.4292 33.4724L28.6406 32.5875V34.3578L26.5401 35.4083L27.0855 36.4985L28.6406 35.7203V37.7812H29.8593V35.7203L31.4151 36.4979L31.9605 35.4077L29.8593 34.3578V32.5875L32.0708 33.4724C32.1433 33.5016 32.2201 33.5156 32.2968 33.5156C32.4169 33.5156 32.5363 33.4803 32.6387 33.4108C32.8057 33.2975 32.9062 33.1086 32.9062 32.9062V30.8703L34.7343 31.654V33.5156H35.9531V32.1762L37.5411 32.8569L38.0207 31.7369L36.4583 31.0672L37.51 30.3664ZM33.3718 28.6406L32.1835 29.2348L30.7966 28.6406L32.1829 28.0465L33.3718 28.6406ZM31.6875 25.275V26.9332L29.8593 27.7168V26.0063L31.6875 25.275ZM26.8125 25.275L28.6406 26.0063V27.7168L26.8125 26.9332V25.275ZM25.1282 28.6406L26.3164 28.0465L27.7034 28.6406L26.3171 29.2348L25.1282 28.6406ZM26.8125 32.0062V30.3481L28.6406 29.5644V31.275L26.8125 32.0062ZM31.6875 32.0062L29.8593 31.275V29.5644L31.6875 30.3481V32.0062Z" fill="#333333"/>
<path d="M28.2403 9.89808L29.1019 10.7597L31.0781 8.78353V11.5781H32.2969V8.78353L34.2731 10.7597L35.1347 9.89808L33.1585 7.92188H35.9531V6.70312H33.1585L35.1347 4.72692L34.2731 3.86527L32.2969 5.84147V3.04688H31.0781V5.84147L29.1019 3.86527L28.2403 4.72692L30.2165 6.70312H27.4219V7.92188H30.2165L28.2403 9.89808Z" fill="#333333"/>
<path d="M10.7597 29.1019L9.89808 28.2403L7.92188 30.2165V27.4219H6.70312V30.2165L4.72692 28.2403L3.86527 29.1019L5.84147 31.0781H3.04688V32.2969H5.84147L3.86527 34.2731L4.72692 35.1347L6.70312 33.1585V35.9531H7.92188V33.1585L9.89808 35.1347L10.7597 34.2731L8.78353 32.2969H11.5781V31.0781H8.78353L10.7597 29.1019Z" fill="#333333"/>
<path d="M25.5938 14.625C26.2668 14.625 26.8125 14.0793 26.8125 13.4062C26.8125 12.7332 26.2668 12.1875 25.5938 12.1875C24.9207 12.1875 24.375 12.7332 24.375 13.4062C24.375 14.0793 24.9207 14.625 25.5938 14.625Z" fill="#333333"/>
<path d="M34.7344 20.7188C35.4075 20.7188 35.9531 20.1731 35.9531 19.5C35.9531 18.8269 35.4075 18.2812 34.7344 18.2812C34.0613 18.2812 33.5156 18.8269 33.5156 19.5C33.5156 20.1731 34.0613 20.7188 34.7344 20.7188Z" fill="#333333"/>
<path d="M16.4531 32.9062C17.1262 32.9062 17.6719 32.3606 17.6719 31.6875C17.6719 31.0144 17.1262 30.4688 16.4531 30.4688C15.78 30.4688 15.2344 31.0144 15.2344 31.6875C15.2344 32.3606 15.78 32.9062 16.4531 32.9062Z" fill="#333333"/>
<path d="M4.26562 24.9844C4.93872 24.9844 5.48438 24.4387 5.48438 23.7656C5.48438 23.0925 4.93872 22.5469 4.26562 22.5469C3.59253 22.5469 3.04688 23.0925 3.04688 23.7656C3.04688 24.4387 3.59253 24.9844 4.26562 24.9844Z" fill="#333333"/>
</svg>

<svg width="39" height="39" viewBox="0 0 39 39" xmlns="http://www.w3.org/2000/svg" fill="none"><rect y="19" width="20" height="20" rx="8" fill="#3ED9B0"/><path d="M21.328 20.109v-1.452l1.556.778.545-1.09-1.498-.749.954-.636-.676-1.014-1.534 1.023-1.128-.564 2.095-1.257-.627-1.045-2.76 1.656-1.145-.573 2.095-1.257c.182-.109.294-.308.294-.522 0-.214-.113-.412-.296-.522l-2.095-1.257 1.145-.573 2.76 1.656.627-1.045-2.095-1.257 1.128-.564 1.534 1.023.676-1.014-.954-.636 1.498-.749-.545-1.09-1.555.778v-1.452h-1.219v2.061l-1.219.609v-2.67h-1.219v3.28l-1.219.609v-3.28c0-.225-.124-.431-.322-.537-.197-.106-.439-.094-.625.03l-2.709 1.806v-1.623l3.438-2.865-.781-.936-2.657 2.214v-1.494l1.65-1.65-.862-.862-.788.788v-.966h-1.219v.966l-.788-.788-.862.862 1.65 1.65v1.494l-2.656-2.214-.781.936 3.437 2.865v1.623l-2.709-1.806c-.187-.125-.428-.137-.625-.03-.199.106-.322.313-.322.537v3.28l-1.219-.609v-3.28h-1.219v2.67l-1.219-.609v-2.061h-1.219v1.452l-1.556-.778-.545 1.09 1.498.749-.954.636.676 1.014 1.534-1.023 1.128.564-2.095 1.257.627 1.045 2.76-1.656 1.145.573-2.095 1.257c-.182.109-.294.308-.294.522 0 .214.113.413.296.522l2.095 1.257-1.145.573-2.76-1.656-.627 1.045 2.095 1.257-1.128.564-1.534-1.023-.676 1.014.954.636-1.498.749.545 1.09 1.555-.778v1.452h1.219v-2.061l1.219-.609v2.67h1.219v-3.28l1.219-.609v3.28c0 .225.124.431.322.538.197.105.439.094.625-.03l2.709-1.806v1.623l-3.438 2.865.781.936 2.657-2.214v1.494l-1.65 1.649.862.862.788-.788v.966h1.219v-.966l.788.788.862-.862-1.65-1.649v-1.494l2.656 2.214.781-.936-3.437-2.865v-1.623l2.709 1.806c.102.068.22.102.338.102.099 0 .197-.024.288-.072.198-.106.322-.313.322-.538v-3.28l1.219.609v3.28h1.219v-2.67l1.219.609v2.061h1.219zm-3.621-6.703l-1.889 1.133-2.268-1.133 2.267-1.133 1.89 1.133zm-2.472-4.955v2.75l-2.438 1.219v-2.344l2.438-1.625zm-6.094 0l2.438 1.625v2.344l-2.438-1.219v-2.751zm-2.472 4.955l1.889-1.133 2.267 1.133-2.267 1.133-1.889-1.133zm2.472 4.955v-2.75l2.438-1.219v2.344l-2.438 1.625zm6.094 0l-2.438-1.625v-2.344l2.438 1.219v2.751zM37.51 30.366l-.676-1.014-1.712 1.142-1.47-.63 1.357-.678c.205-.104.336-.314.336-.545 0-.231-.13-.442-.337-.545l-1.356-.678 1.47-.63 1.712 1.142.676-1.014-1.051-.701 1.562-.67-.48-1.12-1.587.681v-1.339h-1.219v1.862l-1.828.784v-2.036c0-.202-.1-.391-.267-.505-.168-.114-.382-.137-.568-.061l-2.211.885v-1.77l2.101-1.051-.545-1.09-1.555.778v-2.061h-1.219v2.061l-1.556-.778-.545 1.09 2.101 1.05v1.77l-2.211-.885c-.186-.074-.399-.052-.568.061-.167.113-.268.302-.268.505v2.036l-1.828-.784v-1.862h-1.219v1.339l-1.588-.681-.48 1.12 1.563.67-1.051.701.676 1.014 1.712-1.142 1.47.63-1.357.678c-.206.104-.336.315-.336.545 0 .231.13.442.337.545l1.356.678-1.47.63-1.712-1.142-.676 1.014 1.051.701-1.562.67.479 1.12 1.588-.681v1.339h1.219v-1.862l1.828-.784v2.036c0 .202.101.391.268.505.102.069.222.105.342.105l.226-.043 2.211-.885v1.77l-2.101 1.05.545 1.09 1.555-.778v2.061h1.219v-2.061l1.556.778.545-1.09-2.101-1.05v-1.77l2.211.885.226.043c.12 0 .239-.035.342-.105.167-.113.267-.302.267-.505v-2.036l1.828.784v1.862h1.219v-1.339l1.588.681.48-1.12-1.562-.67 1.052-.701zm-4.138-1.726l-1.188.594-1.387-.594 1.386-.594 1.189.594zm-1.684-3.366v1.658l-1.828.784v-1.71l1.828-.731zm-4.875 0l1.828.731v1.71l-1.828-.784v-1.658zm-1.684 3.366l1.188-.594 1.387.594-1.386.594-1.189-.594zm1.684 3.366v-1.658l1.828-.784v1.711l-1.828.731zm4.875 0l-1.828-.731v-1.711l1.828.784v1.658zM28.24 9.898l.862.862 1.976-1.976v2.795h1.219v-2.795l1.976 1.976.862-.862-1.976-1.976h2.795v-1.219h-2.795l1.976-1.976-.862-.862-1.976 1.976v-2.795h-1.219v2.795l-1.976-1.976-.862.862 1.976 1.976h-2.795v1.219h2.795l-1.976 1.976zM10.76 29.102l-.862-.862-1.976 1.976v-2.795h-1.219v2.795l-1.976-1.976-.862.862 1.976 1.976h-2.795v1.219h2.795l-1.976 1.976.862.862 1.976-1.976v2.795h1.219v-2.795l1.976 1.976.862-.862-1.976-1.976h2.795v-1.219h-2.795l1.976-1.976zM25.594 14.625c.673 0 1.219-.546 1.219-1.219s-.546-1.219-1.219-1.219-1.219.546-1.219 1.219.546 1.219 1.219 1.219zM34.734 20.719c.673 0 1.219-.546 1.219-1.219s-.546-1.219-1.219-1.219-1.219.546-1.219 1.219.546 1.219 1.219 1.219zM16.453 32.906c.673 0 1.219-.546 1.219-1.219s-.546-1.219-1.219-1.219-1.219.546-1.219 1.219.546 1.219 1.219 1.219zM4.266 24.984c.673 0 1.219-.546 1.219-1.219s-.546-1.219-1.219-1.219-1.219.546-1.219 1.219.546 1.219 1.219 1.219z" fill="#333"/></svg>
